svg/fluentui-system-icons/ic_fluent_person_feedback_28_filled.svg

<svg width="28" height="28" viewBox="0 0 28 28" fill="none" xmlns="http://www.w3.org/2000/svg">
<path d="M17.75 14C17.62 14 17.48 13.98 17.35 13.94C16.84 13.77 16.5 13.29 16.5 12.75V10.99C15.1 10.86 14 9.68 14 8.25V4.75C14 3.23 15.23 2 16.75 2H23.25C24.77 2 26 3.23 26 4.75V8.25C26 9.77 24.77 11 23.25 11H20.63L18.75 13.5C18.51 13.82 18.14 14 17.75 14ZM9.5 16.5C7.16 16.5 5.25 14.59 5.25 12.25C5.25 9.91 7.16 8 9.5 8C11.84 8 13.75 9.91 13.75 12.25C13.75 14.59 11.84 16.5 9.5 16.5ZM3.47096 23.92C4.78096 25.3 6.81096 26 9.50096 26C12.191 26 14.221 25.3 15.531 23.92C17.0529 22.3102 17.0044 20.3673 17.0011 20.2364C17.001 20.2331 17.001 20.23 17.001 20.23C17.001 19 16.001 18 14.771 18H4.23096C3.00096 18 2.00096 19 2.00096 20.19C2.00096 20.1924 2.00088 20.1967 2.00076 20.2027C1.997 20.3921 1.95872 22.3205 3.47096 23.92Z" fill="#212121"/>
</svg>

<svg xmlns="http://www.w3.org/2000/svg" width="28" height="28"><path d="M17.75 14c-.13 0-.27-.02-.4-.06a1.25 1.25 0 0 1-.85-1.19v-1.76c-1.4-.13-2.5-1.31-2.5-2.74v-3.5C14 3.23 15.23 2 16.75 2h6.5C24.77 2 26 3.23 26 4.75v3.5C26 9.77 24.77 11 23.25 11h-2.62l-1.88 2.5c-.24.32-.61.5-1 .5ZM9.5 16.5a4.26 4.26 0 0 1-4.25-4.25A4.26 4.26 0 0 1 9.5 8a4.26 4.26 0 0 1 4.25 4.25A4.26 4.26 0 0 1 9.5 16.5Zm-6.029 7.42C4.781 25.3 6.811 26 9.501 26c2.69 0 4.72-.7 6.03-2.08 1.522-1.61 1.473-3.553 1.47-3.684v-.006c0-1.23-1-2.23-2.23-2.23H4.231c-1.23 0-2.23 1-2.23 2.19v.013c-.004.19-.042 2.117 1.47 3.717Z"/></svg>
